assets/svg/10x10/disk.svg

<svg xmlns="http://www.w3.org/2000/svg" viewBox="0 -0.5 10 10" shape-rendering="crispEdges"><path stroke="#000" d="M0 0h10M0 1h1m1 0h1m4 0h1m1 0h1M0 2h1m1 0h1m4 0h3M0 3h1m1 0h1m4 0h1m1 0h1M0 4h1m1 0h6m1 0h1M0 5h1m8 0h1M0 6h1m2 0h5m1 0h1M0 7h1m2 0h5m1 0h1M0 8h1m2 0h3m1 0h1m1 0h1M0 9h10"/></svg>

<svg xmlns="http://www.w3.org/2000/svg" viewBox="0 -0.5 10 10" shape-rendering="crispEdges">
<metadata>Made with Pixels to Svg https://codepen.io/shshaw/pen/XbxvNj</metadata>
<path stroke="#000000" d="M0 0h10M0 1h1M2 1h1M7 1h1M9 1h1M0 2h1M2 2h1M7 2h3M0 3h1M2 3h1M7 3h1M9 3h1M0 4h1M2 4h6M9 4h1M0 5h1M9 5h1M0 6h1M3 6h5M9 6h1M0 7h1M3 7h5M9 7h1M0 8h1M3 8h3M7 8h1M9 8h1M0 9h10" />
<path stroke="#ffffff" d="M1 1h1M3 1h4M8 1h1M1 2h1M3 2h4M1 3h1M3 3h4M8 3h1M1 4h1M8 4h1M1 5h8M1 6h2M8 6h1M1 7h2M8 7h1M1 8h2M6 8h1M8 8h1" />
</svg>
